X: 1843
T: Road to the Cape
C:Bob Rummery, Sorrento, WA
B: australian traditional tunes wiki
M:4/4
L:1/8
R: Schottische
Q: 1/4=100
K:D
V:1 
F>G|:"D"{G}A2A>Fd2d>B|A>B A>FD2d>d|"A"{d}e2e>f g>f e>d|c>d e<fe2 (3ABc|
"D"d>c d>e f>d A>F|A>B A>FD2d>d|"A"{d}e2e>f g>f e>d|c2 (3ABc "D"d4:|
|:d>e f>ga2a>f|\\
d>e f>g a>b a>f d2f>f|\\
"G"{f}g2g>d "Em"e2e>d|"A7"c>d e>fe2f>g|
"D"a>f d>f "G"b>g e>g|"D"a>a (3agf d2- (3dcB|"A7"A>e e>d c>A B<c|"D"{d}f2 "A7"e>c "D"d4:|
% abcbook-tune_id 6342d53a753e6c5dab28aa66


% abcbook-boost 0
% abcbook-tablature 
% abcbook-transpose 
% abcbook-lastupdated 1665324387330
% abcbook-soundfonts 
% abcbook-repeats 1


